X:5450
T:Schottische
M:C
O:France
R:Schottische
Z:Richard Robinson 
%%TUNEURL: http://www.leeds.ac.uk/music/Info/RRTuneBk/gettune/000006eb.html
%%ID:000006eb
K:G
G2B2ABcA|G2g2d4|cBAc BAGB\
|1ABAGF2D2:|2 ABAFG4::\
g3g f2d2|efged4\
|1efge dBGB|ABAGF2D2:|2cBAc BAGB|ABAFG4:|
